X:722
T:Bonnie Nancy
C:Joe Buchanan's Scottish Tome - Page 494.0
I:494 0
Z:Carl Allison
R:Reel
L:1/8
M:4/4
K:G
W:1st Violin
%%vskip 0
g | f2> g2 f2 e2 | d3 e2 | d2> D2 d2 c2 | B6 g2 |
f2> g2 f2 e2 | d2 D d>cBA | G2> D2 E2 F2 | G8 :|
FE | D2> F2 A2 c | B3 BG | A2> B2 c2 e2 | A6 G2 |
F2> D2 E2 F2 | G2 g2 f>edc | B2> D2 E2 F2 | G6 FE |
D2> F2 A2 c2 | B6 BG | A2> B2 c2 e2 | A6 g2 |
f2> g2 f2 e2 | d2 D2 d>cBA | G2> D2 E2 F2 | G8 |]
%%vskip 5
W:2nd Violin
%%vskip 0
[M:2/4]
BG | d2> e2 d2 c2 | B6 g3 | f6 a2 | g6 BG |
d2> e2 d2 c2 | B2 g e2 dc | e2> f2 gf e2 | d6 B2 :|
Bc | d2> e2 d2 c2 | B6 g2 | B2> d2 gfe2 | d6 g2 |
a4 f4 | g2 b2 agfe | d2> g2 f4 | g6 Bc |
d2> e2 d2 c2 | B6 g2 | e2> f2 gf e2 | d6 g2 |
a4 c'4 | b2 g2 e2 dc | B2 d2 d2 <c2 | c6 B2 |]

